X: 33027
T: Pride And Joy
R: polka
M: 2/4
K: Gmajor
|:e4|e4|{=f}e2 c2|B2A2|E2^G2|^GE ^GB|AE Ac|B<B AA|
e4|e4|{=f}e2 c2|B2A2|E2^G2|^GE ^GB|AE Ac|A4:|

